X: 37325
T: Skylark In Flight, The
R: hornpipe
M: 4/4
K: Gmajor
(3B^cd|:g2AG FDEF|G2gG fGeB|BcAG FDEF|G2 (3AGF G2 (3B^cd|
g2AG FDEF|G2 (3EFG AB (3def|gGBe dDGc|1 BDFA G2 (3B^cd:|2 BDFA G4||
|:g2bd gbdg|e2 AG GAdc|B~G3 cAAG|~F3A d^c (3Bcd|
g2bd gbdg|e2 AG GA (3def|gGBe dDGc|BDFA G4:|

